X: 421
T: Yaochuan hong lai yishen hong
L: 1/8
M: 2/4
K: F
d> d f d [I:setbarnb 1]| 
cA3 | 
d2f d | 
cA3 | 
d> d f d | 
cA2G | 
D> A G F | 
GD3 |]

@@@ Tune index: 9295
